!!!COM:	la Rue, Pierre de
!!!CDT:	~1452///-1518/11/20
!!!OTL:	Magnificat Octavi toni
!!!AGN:	Motet
!!!SCT:	Rue2014
!!!SCA:	Rue2014
!!!voices:	4
**kern	**kern	**kern	**kern
*staff4	*staff3	*staff2	*staff1
*Ivox	*Ivox	*Ivox	*Ivox
*I"Bassus	*I"Tenor	*I"Contratenor	*I"Discantus
*I'B	*I'T	*I'Ct	*I'D
*>[A,B,C,D,E,F]	*>[A,B,C,D,E,F]	*>[A,B,C,D,E,F]	*>[A,B,C,D,E,F]
*>A	*>A	*>A	*>A
*clefF4	*clefGv2	*clefGv2	*clefG2
*k[]	*k[]	*k[]	*k[]
*M2/1	*M2/1	*M2/1	*M2/1
*met(C|)	*met(C|)	*met(C|)	*met(C|)
!!section: Et exultavit
!!!OMD: Et exultavit
=1-	=1-	=1-	=1-
0r	[0G	1r	0r
.	.	1d	.
=2	=2	=2	=2
0r	0G]	1d	0r
.	.	2.e\	.
.	.	4d\	.
=3	=3	=3	=3
0r	1G	4e\	0r
.	.	4d\	.
.	.	1g	.
.	1A	.	.
.	.	2f#i\	.
=4	=4	=4	=4
0r	0G	1g	1r
.	.	2e\	1g
.	.	2B\	.
=5	=5	=5	=5
0r	0c	2.e\	1g
.	.	4d\	.
.	.	2c\	2.a/
.	.	2B\	.
.	.	.	4g/
=6	=6	=6	=6
0r	1c	1A	4a/
.	.	.	4g/
.	.	.	1cc
.	1d	1G	.
.	.	.	2b\
=7	=7	=7	=7
1r	1c	0r	2cc\
.	.	.	2g/
[1C	4c\	.	2.cc\
.	4B\	.	.
.	4A/	.	.
.	4G/	.	4b\
=8	=8	=8	=8
1C]	4A/	0r	2a/
.	4G/	.	.
.	1c	.	2g/
1D	.	.	1f
.	2B\	.	.
=9	=9	=9	=9
2.C/	[0c	2r	2.e/
.	.	1G	.
4D\	.	.	4f/
4E\	.	.	4g/
4C/	.	.	4e/
[2F\	.	2F/	[2a/
=10	=10	=10	=10
2F\]	0c_	1G	2a/]
2E\	.	.	2g/
2F\	.	2F/	2a/
2C/	.	2G/	2e/
=11	=11	=11	=11
2.F\	0c]	2A/	2.a/
.	.	1A	.
4E\	.	.	4g/
2D\	.	.	2f/
2C/	.	[2A/	2e/
=12	=12	=12	=12
1BB	0r	2A/]	1d
.	.	2G#i/	.
1AA	.	1A	1c
=13	=13	=13	=13
2r	0c	1r	1r
1C	.	.	.
.	.	2r	1g
4BB/	.	2e\	.
4AA/	.	.	.
=14	=14	=14	=14
1C	0c	2e\	1g
.	.	2e\	.
[1FF	.	2.f\	[1a
.	.	4e\	.
=15	=15	=15	=15
1FF]	1d	2d\	1a]
.	.	2c\	.
1GG	1d	1B	1b
=16	=16	=16	=16
1AA	[0c	1A	1.cc
2r	.	2r	.
2E\	.	2G/	4b\
.	.	.	4a/
=17	=17	=17	=17
2E\	0c]	2G/	1g
2E\	.	2G/	.
2.F\	.	2.A/	1r
4E\	.	4G/	.
=18	=18	=18	=18
2D\	0d	2F/	2r
2C/	.	2E/	2b\
1BB	.	1D	2b\
.	.	.	2b\
=19	=19	=19	=19
1AA	1c	1E	2.cc\
.	.	.	4b\
1r	1c	2F/	2a/
.	.	2E/	2g/
=20	=20	=20	=20
1r	0c	1F	1f
[1C	.	1G	1e
=21	=21	=21	=21
0C]	2.c\	0e	1cc
.	4B\	.	.
.	2A/	.	[1cc
.	2G/	.	.
=22	=22	=22	=22
1FF	1F	1f	1cc]
1C	1E	1g	1cc
=23	=23	=23	=23
1r	0r	1r	1r
1F	.	1f	[1cc
=24	=24	=24	=24
1F	0r	1f	1cc]
1C	.	1e	[1cc
=25	=25	=25	=25
1F	0r	1f	1cc]
1G	.	1d	1b
=26	=26	=26	=26
1C	1r	0c	1cc
1F	[1c	.	[1a
=27	=27	=27	=27
1F	1c]	0r	1a]
1E	[1c	.	1g
=28	=28	=28	=28
1F	1c]	0r	2r
.	.	.	2c/
1D	1B	.	2d/
.	.	.	2f/
=29	=29	=29	=29
1C	1c	1r	2e/
.	.	.	2.a/
1r	[1A	1c	.
.	.	.	4g/
.	.	.	4f#i/
.	.	.	4e/
=30	=30	=30	=30
1D	1A]	0d	1f#i
[1GG	1G	.	1g
=31	=31	=31	=31
0GG]	0r	[0d	2r
.	.	.	1b
.	.	.	4a/
.	.	.	4g/
=32	=32	=32	=32
2FF/	2r	0d]	2a/
1.GG	1B	.	2g/
.	.	.	1dd
.	4A/	.	.
.	4G/	.	.
=33	=33	=33	=33
2FF/	2A/	2r	1dd
1.GG	2G/	1B	.
.	1d	.	2g/
.	.	4A/	2b\
.	.	4G/	.
=34	=34	=34	=34
2FF/	1d	2A/	2a/
1GG	.	2G/	2b\
.	1G	1d	2g/
[2BB/	.	.	[2dd\
=35	=35	=35	=35
2BB/]	2r	2G/	2dd\]
4AA/	2d\	2B\	4cc\
4GG/	.	.	4b\
2AA/	2c\	2A/	2cc\
2GG/	2d\	[2B\	[2b\
=36	=36	=36	=36
1D	1B	4B\]	4b\]
.	.	4c\	4a/
.	.	4d\	1g
.	.	4e\	.
1D	1A	1d	.
.	.	.	2f#i/
=37	=37	=37	=37
0GGl	0Gl	0dl	0gl
!!LO:LB:i:g=z
=38||	=38||	=38||	=38||
*>B	*>B	*>B	*>B
*clefF4	*clefGv2	*clefGv2	*clefG2
*k[]	*k[]	*k[]	*k[]
*M2/1	*M2/1	*M2/1	*M2/1
*met(C|)	*met(C|)	*met(C|)	*met(C|)
!!section: Quia fecit mihi magna
!!!OMD: Quia fecit mihi magna
2.GG/	0G	2.d\	0r
4AA/	.	4c\	.
2BB/	.	2d\	.
[2C/	.	[2e\	.
=39	=39	=39	=39
4C/]	1A	2e\]	0r
4D\	.	.	.
4E\	.	4d\	.
4F\	.	4c\	.
2G\	1G	2B\	.
[2C/	.	2c\	.
=40	=40	=40	=40
4C/]	1c	1e	0r
4BB/	.	.	.
2C/	.	.	.
1GG	1B	1d	.
=41	=41	=41	=41
1r	0c	2.c\	1r
.	.	4d\	.
2.C/	.	2e\	2.g/
.	.	[2e\	.
4D\	.	.	4f/
=42	=42	=42	=42
2E\	1c	4e\]	2g/
.	.	4d\	.
2.F\	.	4c\	1a
.	.	4B\	.
.	1c	1A	.
4G\	.	.	.
4A\	.	.	4g/
4B\	.	.	4f/
=43	=43	=43	=43
2c\	0c	1r	2e/
2.F\	.	.	2f/
.	.	2r	1a
4E\	.	.	.
2F\	.	[2f\	.
=44	=44	=44	=44
1C	0c	2f\]	1g
.	.	2e\	.
1F	.	2.f\	1f
.	.	4e\	.
=45	=45	=45	=45
1A	0r	4f\	2r
.	.	4e\	.
.	.	4d\	1cc
.	.	4c\	.
1G	.	1d	.
.	.	.	2b\
=46	=46	=46	=46
1C	0r	2.c\	2.cc\
.	.	4d\	4b\
1r	.	4e\	4cc\
.	.	4f\	4b\
.	.	[2g\	4a/
.	.	.	4g/
=47	=47	=47	=47
2r	0r	2g\]	1a
1F	.	2f\	.
.	.	2d\	1g
2E\	.	4e\	.
.	.	4d\	.
=48	=48	=48	=48
2.F\	1r	4c\	0r
.	.	4B\	.
.	.	1A	.
4E\	.	.	.
4F\	2r	.	.
4E\	.	.	.
4D\	[2c\	[2G/	.
4C/	.	.	.
=49	=49	=49	=49
1D	2c\]	2G/]	0r
.	2B\	2F/	.
2.C/	2.c\	2E/	.
.	.	[2G/	.
4D\	4B\	.	.
=50	=50	=50	=50
4E\	4c\	2G/]	0r
4F\	4B\	.	.
1G	4A/	4F/	.
.	4G/	4E/	.
.	1A	1D	.
2F#i\	.	.	.
=51	=51	=51	=51
1G	2.G/	0d	0r
.	4A/	.	.
1D	4B\	.	.
.	4c\	.	.
.	[2d\	.	.
=52	=52	=52	=52
2BB/	2d\]	0r	0r
2C/	1c	.	.
1D	.	.	.
.	2B\	.	.
=53	=53	=53	=53
1C	1c	0r	2.g/
.	.	.	4a/
1r	1d	.	4b\
.	.	.	4cc\
.	.	.	[2dd\
=54	=54	=54	=54
0r	2B\	0r	2dd\]
.	2c\	.	1cc
.	1d	.	.
.	.	.	2b\
=55	=55	=55	=55
2.C/	0c	1r	0cc
4D\	.	.	.
2E\	.	2r	.
[2F\	.	2c\	.
=56	=56	=56	=56
2F\]	2.A/	2.c\	1cc
4E\	.	.	.
4D\	4G/	4d\	.
[1C	1G	4e\	1cc
.	.	4f\	.
.	.	[2g\	.
=57	=57	=57	=57
2C/]	2E/	2g\]	0cc
2FF/	2F/	1f	.
1C	1G	.	.
.	.	2e\	.
=58	=58	=58	=58
0FF	1A	1f	1.cc
.	1F	1f	.
.	.	.	4b\
.	.	.	4a/
=59	=59	=59	=59
0r	0c	1g	4b\
.	.	.	4a/
.	.	.	4g/
.	.	.	4f/
.	.	1g	2e/
.	.	.	2g/
=60	=60	=60	=60
0r	1r	1f	2a/
.	.	.	1f
.	1c	1g	.
.	.	.	2e/
=61	=61	=61	=61
0r	1d	0f	2f/
.	.	.	1d
.	1d	.	.
.	.	.	2f/
=62	=62	=62	=62
0r	1c	0r	2e/
.	.	.	4d/
.	.	.	4c/
.	1d	.	2.B/
.	.	.	4A/
=63	=63	=63	=63
0r	0c	2r	1c
.	.	1g	.
.	.	.	1cc
.	.	4f\	.
.	.	4e\	.
=64	=64	=64	=64
0r	0r	2f\	1dd
.	.	1d	.
.	.	.	1dd
.	.	2f\	.
=65	=65	=65	=65
0r	0r	2e\	1cc
.	.	4d\	.
.	.	4c\	.
.	.	2.B\	1dd
.	.	4A/	.
=66	=66	=66	=66
1r	2r	1c	0cc
.	1c	.	.
1F	.	1r	.
.	4B\	.	.
.	4A/	.	.
=67	=67	=67	=67
1G	2B\	0r	0r
.	1G	.	.
1G	.	.	.
.	2B\	.	.
=68	=68	=68	=68
1F	2A/	0r	1r
.	4G/	.	.
.	4F/	.	.
1G	2.E/	.	1g
.	4D/	.	.
=69	=69	=69	=69
1F	1F	1r	1a
1r	1r	1e	[1cc
=70	=70	=70	=70
0r	1r	1f	1cc]
.	1G	1d	1b
=71	=71	=71	=71
0r	1A	0c	1cc
.	[1c	.	1a
=72	=72	=72	=72
1E	0c_	0r	1g
[1F	.	.	2r
.	.	.	[2a/
=73	=73	=73	=73
1F]	1c]	2r	4a/]
.	.	.	4b\
.	.	1f	2cc\
1D	1B	.	1dd
.	.	4e\	.
.	.	4d\	.
=74	=74	=74	=74
1C	1c	1e	2g/
.	.	.	2.a/
1r	1A	1f	.
.	.	.	4b\
.	.	.	2cc\
=75	=75	=75	=75
1r	[0G	2g\	2b\
.	.	1e	1g
[1GG	.	.	.
.	.	4d\	4f/
.	.	4c\	4e/
=76	=76	=76	=76
1GG]	0G]	1B	1d
1C	.	1c	1e
=77	=77	=77	=77
2BB/	1r	2d\	2r
1C	.	2e\	1e
.	[1G	1c	.
2C/	.	.	2e/
=78	=78	=78	=78
2BB/	0G]	2r	2d/
2.C/	.	1c	2.e/
4D\	.	.	4f/
2E\	.	4B\	2g/
.	.	4c\	.
=79	=79	=79	=79
2D\	0A	2d\	2f/
1F	.	2c\	1a
.	.	1f	.
4E\	.	.	[2cc\
4D\	.	.	.
=80	=80	=80	=80
2C/	0c	2e\	2cc\]
2D\	.	2f\	4b\
.	.	.	4a/
2E\	.	[1g	2g/
2F\	.	.	2a/
=81	=81	=81	=81
0G	0B	2g\]	2b\
.	.	4f\	2cc\
.	.	4e\	.
.	.	1d	1dd
=82	=82	=82	=82
2E\	0c	2e\	2g/
2.F\	.	2c\	2.a/
.	.	2f\	.
4E\	.	.	4b\
2C/	.	2e\	[2cc\
=83	=83	=83	=83
2.F\	0A	2d\	4cc\]
.	.	.	4b\
.	.	2c\	4a/
4E\	.	.	4g/
1D	.	1d	2.f#i/
.	.	.	4e/
=84	=84	=84	=84
0GGl	0Gl	0dl	0gl
!!LO:LB:i:g=z
=85||	=85||	=85||	=85||
*>C	*>C	*>C	*>C
*clefF4	*clefGv2	*clefGv2	*clefG2
*k[]	*k[]	*k[]	*k[]
*M2/1	*M2/1	*M2/1	*M2/1
*met(C|)	*met(C|)	*met(C|)	*met(C|)
!!section: Fecit potentiam in brachio suo
!!!OMD: Fecit potentiam in brachio suo
0r	0G	0r	0r
=86	=86	=86	=86
1r	2.A/	1r	0r
.	4B\	.	.
[1C	4c\	2r	.
.	4d\	.	.
.	[2e\	[2g\	.
=87	=87	=87	=87
1C]	2e\]	2g\]	0r
.	1c	4f\	.
.	.	4e\	.
1D	.	1f	.
.	2B\	.	.
=88	=88	=88	=88
2.C/	0c	2e\	0r
.	.	2.e\	.
4D\	.	.	.
2E\	.	.	.
.	.	4d\	.
[2F\	.	4c\	.
.	.	4B\	.
=89	=89	=89	=89
2F\]	0r	2A/	0r
2E\	.	2G/	.
4F\	.	2A/	.
4E\	.	.	.
4D\	.	[2c\	.
4C/	.	.	.
=90	=90	=90	=90
1D	0r	2c\]	0r
.	.	2B\	.
1C	.	1c	.
=91	=91	=91	=91
2r	0c	0r	0r
1C	.	.	.
4D\	.	.	.
4E\	.	.	.
=92	=92	=92	=92
2F\	1c	2r	0r
2.E\	.	1c	.
.	1c	.	.
4D\	.	.	.
4C/	.	4d\	.
4BB/	.	4e\	.
=93	=93	=93	=93
1AA	[0c	2f\	0r
.	.	2.e\	.
2r	.	.	.
.	.	4d\	.
2E\	.	4c\	.
.	.	4B\	.
=94	=94	=94	=94
2F\	0c]	2A/	0r
1E	.	2r	.
.	.	2.e\	.
4D\	.	.	.
4C/	.	8d\L	.
.	.	8e\J	.
=95	=95	=95	=95
2D\	0r	2f\	0r
1C	.	2.e\	.
.	.	4d\	.
4BB/	.	4B\	.
4AA/	.	4c\	.
=96	=96	=96	=96
2GG/	0r	4d\	0r
.	.	4c\	.
2AA/	.	4B\	.
.	.	4A/	.
1BB	.	2.G#i/	.
.	.	4F#i/	.
=97	=97	=97	=97
[0AA	[0c	1A	0r
.	.	1r	.
=98	=98	=98	=98
0AA_	0c_	1e	0r
.	.	2e\	.
.	.	[2f\	.
=99	=99	=99	=99
0AA]	0c]	2f\]	0r
.	.	4e\	.
.	.	4d\	.
.	.	1e	.
=100	=100	=100	=100
0r	2.d\	[0d	0r
.	4c\	.	.
.	4B\	.	.
.	4A/	.	.
.	2G/	.	.
=101	=101	=101	=101
2.D\	1A	0d_	0r
4E\	.	.	.
2F\	2A/	.	.
2G\	[2B\	.	.
=102	=102	=102	=102
2D\	2B\]	0d]	0r
1G	4A/	.	.
.	4G/	.	.
.	1A	.	.
2F#i\	.	.	.
=103	=103	=103	=103
2.G\	1G	0r	0r
4F\	.	.	.
4E\	2r	.	.
4D\	.	.	.
[2C/	2G/	.	.
=104	=104	=104	=104
2C/]	2.G/	0r	0r
2C/	.	.	.
.	4A/	.	.
2D\	2B\	.	.
[2E\	2c\	.	.
=105	=105	=105	=105
2E\]	2G/	1r	0r
4D\	1c	.	.
4C/	.	.	.
1D	.	1d	.
.	2B\	.	.
=106	=106	=106	=106
1C	[0c	1e	0r
4C/	.	4e\	.
4BB/	.	4d\	.
4AA/	.	4c\	.
4GG/	.	4B\	.
=107	=107	=107	=107
2.FF/	0c]	2A/	0r
.	.	2.c\	.
4GG/	.	.	.
4AA/	.	.	.
4BB/	.	4B\	.
[2C/	.	4A/	.
.	.	4G/	.
=108	=108	=108	=108
4C/]	0c	2A/	0r
4BB/	.	.	.
4AA/	.	1G	.
4GG/	.	.	.
1AA	.	.	.
.	.	2F#i/	.
=109	=109	=109	=109
[0GG	[0B	1G	0r
.	.	1r	.
=110	=110	=110	=110
0GG]	0B_	1d	0r
.	.	4d\	.
.	.	4c\	.
.	.	4B\	.
.	.	4A/	.
=111	=111	=111	=111
1G	0B]	1G	0r
4G\	.	1r	.
4F\	.	.	.
4E\	.	.	.
4D\	.	.	.
=112	=112	=112	=112
1C	[0c	1e	0r
1r	.	4e\	.
.	.	4d\	.
.	.	4c\	.
.	.	4B\	.
=113	=113	=113	=113
1A	0c]	1A	0r
4A\	.	2r	.
4G\	.	.	.
4F\	.	2e\	.
4E\	.	.	.
=114	=114	=114	=114
1D	0d	1f	0r
4D\	.	2f\	.
4C/	.	.	.
4BB/	.	[2d\	.
4AA/	.	.	.
=115	=115	=115	=115
2GG/	0d	4d\]	0r
.	.	4c\	.
1G	.	1B	.
2B\	.	4A/	.
.	.	4G/	.
=116	=116	=116	=116
2A\	[0d	2F/	0r
2B\	.	1G	.
1G	.	.	.
.	.	2B\	.
=117	=117	=117	=117
2F\	0d_	2A/	0r
1G	.	2B\	.
.	.	1G	.
2B\	.	.	.
=118	=118	=118	=118
2A\	0d_	2F/	0r
2B\	.	1G	.
2G\	.	.	.
2GG/	.	2B\	.
=119	=119	=119	=119
2FF/	0d]	2A/	0r
1GG	.	2.B\	.
.	.	4A/	.
2BB/	.	[2G/	.
=120	=120	=120	=120
1AA	1c	2G/]	0r
.	.	2F#i/	.
1GG	1B	1G	.
=121	=121	=121	=121
1r	1c	1A	0r
1GG	[1d	1B	.
=122	=122	=122	=122
0C	2d\]	1c	0r
.	2c\	.	.
.	[1c	1e	.
=123	=123	=123	=123
0GG	1c]	0d	0r
.	1B	.	.
=124	=124	=124	=124
0C	2c\	0c	0r
.	1A	.	.
.	4G/	.	.
.	4F/	.	.
=125	=125	=125	=125
1r	2E/	1c	0r
.	1F	.	.
1C	.	1c	.
.	2E/	.	.
=126	=126	=126	=126
2FF/	2F/	1c	0r
2FF/	2A/	.	.
1C	2G/	1c	.
.	2E/	.	.
=127	=127	=127	=127
1FF	1F	1c	0r
[1C	[1E	[1c	.
=128	=128	=128	=128
1C]	1E]	1c]	0r
1AA	1A	1c	.
=129	=129	=129	=129
1AA	1A	1c	0r
1E	1G	1B	.
=130	=130	=130	=130
1AA	1A	1c	0r
1D	1F	1A	.
=131	=131	=131	=131
1GG	1G	1G	0r
1r	1c	1A	.
=132	=132	=132	=132
0r	1c	1A	0r
.	1B	1G	.
=133	=133	=133	=133
0r	1c	1A	0r
.	1A	1F	.
=134	=134	=134	=134
1r	0G	1G	0r
1C	.	1e	.
=135	=135	=135	=135
1C	1r	1e	0r
1BB	1G	1d	.
=136	=136	=136	=136
1C	1G	1e	0r
1AA	1F	1c	.
=137	=137	=137	=137
[0GGl	1G	[0Bl	0r
.	1E	.	.
=138	=138	=138	=138
0GG]	0Dl	0B]	0r
!!LO:LB:i:g=z
=139||	=139||	=139||	=139||
*>D	*>D	*>D	*>D
*clefF4	*clefGv2	*clefGv2	*clefG2
*k[]	*k[]	*k[]	*k[]
*M2/1	*M2/1	*M2/1	*M2/1
*met(C|)	*met(C|)	*met(C|)	*met(C|)
!!section: Esurientes implevit bonis
!!!OMD: Esurientes implevit bonis
0r	0r	0G	0r
=140	=140	=140	=140
0r	0r	1A	0r
.	.	2.G/	.
.	.	4A/	.
=141	=141	=141	=141
0r	0r	2B\	0g
.	.	2.c\	.
.	.	4B\	.
.	.	2G/	.
=142	=142	=142	=142
0r	0r	1d	1a
.	.	[1e	2.g/
.	.	.	4a/
=143	=143	=143	=143
0r	0r	2e\]	2b\
.	.	2A/	2.cc\
.	.	1e	.
.	.	.	4b\
.	.	.	2g/
=144	=144	=144	=144
0r	0r	1f	2a/
.	.	.	4g/
.	.	.	4f/
.	.	1g	3e/V
.	.	.	3f/
.	.	.	3g/Z
=145	=145	=145	=145
0r	0r	2g\	2c/
.	.	4c\	2.g/
.	.	4d\	.
.	.	4e\	.
.	.	4f\	4a/
.	.	2g\	4b\
.	.	.	4cc\
=146	=146	=146	=146
0r	0r	2G/	2dd\
.	.	2.c\	2g/
.	.	.	2r
.	.	4d\	.
.	.	4e\	[2g/
.	.	4f\	.
=147	=147	=147	=147
0r	0r	1g	2g/]
.	.	.	4c/
.	.	.	4d/
.	.	2r	4e/
.	.	.	4f/
.	.	[2g\	2g/
=148	=148	=148	=148
0r	0r	2g\]	2c/
.	.	4c\	1cc
.	.	4d\	.
.	.	4e\	.
.	.	4f\	.
.	.	2g\	2b\
=149	=149	=149	=149
0r	0r	2c\	1cc
.	.	1e	.
.	.	.	2b\
.	.	4A/	[2a/
.	.	4B\	.
=150	=150	=150	=150
0r	0r	4c\	2a/]
.	.	4d\	.
.	.	2e\	2g/
.	.	2A/	2a/
.	.	[2e\	[2g/
=151	=151	=151	=151
0r	0r	2e\]	4g/]
.	.	.	4c/
.	.	1c	2e/
.	.	.	1d
.	.	2B\	.
=152	=152	=152	=152
0r	0r	1c	0c
.	.	2r	.
.	.	[2c\	.
=153	=153	=153	=153
0r	0r	4c\]	1r
.	.	4B\	.
.	.	2.c\	.
.	.	.	1g
.	.	4B\	.
.	.	2c\	.
=154	=154	=154	=154
0r	0r	2B\	1g
.	.	2c\	.
.	.	2F/	1a
.	.	2c\	.
=155	=155	=155	=155
0r	0r	2r	1a
.	.	2.c\	.
.	.	.	1g
.	.	4B\	.
.	.	2c\	.
=156	=156	=156	=156
0r	0r	2F/	1a
.	.	2.c\	.
.	.	.	2g/
.	.	4d\	.
.	.	2e\	[2cc\
=157	=157	=157	=157
0r	0r	2f\	4cc\]
.	.	.	4b\
.	.	1g	4a/
.	.	.	4g/
.	.	.	1a
.	.	2f#i\	.
=158	=158	=158	=158
0r	0r	1g	2r
.	.	.	1g
.	.	1G	.
.	.	.	4f/
.	.	.	4e/
=159	=159	=159	=159
0r	0r	1r	2d/
.	.	.	2.e/
.	.	1G	.
.	.	.	4d/
.	.	.	[2e/
=160	=160	=160	=160
0r	0r	1G	4e/]
.	.	.	4d/
.	.	.	1e
.	.	1A	.
.	.	.	2A/
=161	=161	=161	=161
0r	0r	1A	2r
.	.	.	2.e/
.	.	1G	.
.	.	.	4d/
.	.	.	2e/
=162	=162	=162	=162
0r	0r	1A	2A/
.	.	.	2.e/
.	.	2G/	.
.	.	.	4d/
.	.	[2c\	2e/
=163	=163	=163	=163
0r	0r	4c\]	2f/
.	.	4B\	.
.	.	4A/	1g
.	.	4G/	.
.	.	1A	.
.	.	.	2f#i/
=164	=164	=164	=164
0r	0r	0G	1g
.	.	.	1r
=165	=165	=165	=165
0r	0r	1r	1g
.	.	[1c	1g
=166	=166	=166	=166
0r	0r	1c]	1a
.	.	[1c	1g
=167	=167	=167	=167
0r	0r	1c]	2r
.	.	.	1cc
.	.	1d	.
.	.	.	2b\
=168	=168	=168	=168
0r	0r	2c\	2.a/
.	.	2f\	.
.	.	.	4b\
.	.	2e\	2cc\
.	.	[2d\	[2dd\
=169	=169	=169	=169
0r	0r	4d\]	4dd\]
.	.	4e\	4cc\
.	.	2f\	2a/
.	.	2.g\	2b\
.	.	.	2g/
.	.	4f\	.
=170	=170	=170	=170
0r	0r	2d\	2f/
.	.	2e\	2.g/
.	.	2c\	.
.	.	.	4f/
.	.	2B\	2d/
=171	=171	=171	=171
0r	0r	2.c\	2e/
.	.	.	2c/
.	.	4B\	.
.	.	2G/	2B/
.	.	2A/	[2c/
=172	=172	=172	=172
0r	0r	2F/	4c/]
.	.	.	4B/
.	.	2E/	2G/
.	.	1e	2r
.	.	.	2g/
=173	=173	=173	=173
0r	0r	1d	2a/
.	.	.	2b\
.	.	1c	2cc\
.	.	.	4b\
.	.	.	4a/
=174	=174	=174	=174
0r	0r	2r	2g/
.	.	2c\	1a
.	.	2d\	.
.	.	2e\	2g/
=175	=175	=175	=175
0r	0r	2f\	0a
.	.	4e\	.
.	.	4d\	.
.	.	2c\	.
.	.	2d\	.
=176	=176	=176	=176
0r	0r	2A/	0r
.	.	2f\	.
.	.	2f\	.
.	.	2e\	.
=177	=177	=177	=177
0r	0r	1f	2r
.	.	.	2cc\
.	.	1d	2cc\
.	.	.	2b\
=178	=178	=178	=178
0r	0r	2c\	1cc
.	.	2c\	.
.	.	2d\	1a
.	.	2f\	.
=179	=179	=179	=179
0r	0r	2f\	2g/
.	.	2e\	2g/
.	.	2f\	2a/
.	.	2e\	2cc\
=180	=180	=180	=180
0r	0r	2f\	2cc\
.	.	2d\	2b\
.	.	2c\	2cc\
.	.	2G/	2b\
=181	=181	=181	=181
0r	0r	2A/	2cc\
.	.	2c\	2a/
.	.	2B\	2g/
.	.	2c\	[2cc\
=182	=182	=182	=182
0r	0r	2A/	2cc\]
.	.	2G/	2b\
.	.	2r	2cc\
.	.	2c\	[2a/
=183	=183	=183	=183
0r	0r	2B\	2a/]
.	.	2c\	1g
.	.	1A	.
.	.	.	2f#i/
=184	=184	=184	=184
0r	0r	0Gl	0gl
!!LO:LB:i:g=z
=185||	=185||	=185||	=185||
*>E	*>E	*>E	*>E
*clefF4	*clefGv2	*clefGv2	*clefG2
*k[]	*k[]	*k[]	*k[]
*M2/1	*M2/1	*M2/1	*M2/1
*met(C|)	*met(C|)	*met(C|)	*met(C|)
!!section: Sicut locutus est ad patres nostros
!!!OMD: Sicut locutus est ad patres nostros
0r	0r	1G	1g
.	.	2A/	2f/
.	.	2G/	[2g/
=186	=186	=186	=186
0r	0r	1A	2g/]
.	.	.	2f/
.	.	2G/	2.g/
.	.	2A/	.
.	.	.	4f/
=187	=187	=187	=187
0r	0r	2G/	2g/
.	.	1A	2e/
.	.	.	2f/
.	.	2B\	2g/
=188	=188	=188	=188
1C	1c	1c	1c
2D\	2B\	1r	1r
2C/	[2c\	.	.
=189	=189	=189	=189
1D	2c\]	0r	0r
.	2B\	.	.
2C/	2.c\	.	.
2D\	.	.	.
.	4B\	.	.
=190	=190	=190	=190
2C/	2c\	0r	1r
1D	2A/	.	.
.	2B\	.	1g
2E\	2c\	.	.
=191	=191	=191	=191
0F	2.F/	1r	2.a/
.	4G/	.	4b\
.	4A/	[1c	2cc\
.	4B\	.	.
.	[2c\	.	[2cc\
=192	=192	=192	=192
0r	2c\]	1c]	4cc\]
.	.	.	4a/
.	4B\	.	2cc\
.	4A/	.	.
.	1G	2.d\	1b
.	.	4e\	.
=193	=193	=193	=193
0r	0F	2f\	2.a/
.	.	2.f\	.
.	.	.	4b\
.	.	.	2cc\
.	.	4d\	.
.	.	2f\	[2dd\
=194	=194	=194	=194
0r	0r	2d\	2dd\]
.	.	2f\	2.cc\
.	.	1e	.
.	.	.	4b\
.	.	.	2g/
=195	=195	=195	=195
0r	2r	1d	2a/
.	2G/	.	2b\
.	2.A/	1c	1e
.	4B\	.	.
=196	=196	=196	=196
0C	2c\	0r	0r
.	2.c\	.	.
.	4A/	.	.
.	2c\	.	.
=197	=197	=197	=197
2.D\	1B	0r	0r
4E\	.	.	.
2F\	2.A/	.	.
[2F\	.	.	.
.	4B\	.	.
=198	=198	=198	=198
4F\]	2c\	0r	0r
4D\	.	.	.
2F\	1d	.	.
2D\	.	.	.
2F\	[2c\	.	.
=199	=199	=199	=199
1E	4c\]	0r	0r
.	4B\	.	.
.	2G/	.	.
1D	2A/	.	.
.	2B\	.	.
=200	=200	=200	=200
2r	1E	0r	0r
2C/	.	.	.
2BB/	2r	.	.
2C/	2G/	.	.
=201	=201	=201	=201
2D\	2F/	1r	0r
2.C/	2G/	.	.
.	2A/	2r	.
4D\	.	.	.
4E\	2G/	2c\	.
4F\	.	.	.
=202	=202	=202	=202
2G\	1r	2B\	2r
2C/	.	2c\	2cc\
2G\	2r	2d\	2b\
2A\	2c\	2c\	2cc\
=203	=203	=203	=203
2G\	2B\	[0g	2dd\
2C/	2c\	.	1cc
1G	1d	.	.
.	.	.	2b\
=204	=204	=204	=204
0C	[0c	0g]	0cc
=205	=205	=205	=205
0FF	0c]	1r	2r
.	.	.	1cc
.	.	1f	.
.	.	.	4b\
.	.	.	4a/
=206	=206	=206	=206
1C	0r	1e	1g
1FF	.	1f	1a
=207	=207	=207	=207
0C	1r	0g	2r
.	.	.	1g
.	1c	.	.
.	.	.	4f/
.	.	.	4e/
=208	=208	=208	=208
0r	1B	0g	1d
.	1c	.	1e
=209	=209	=209	=209
0D	0d	0f	2d/
.	.	.	4c/
.	.	.	4B/
.	.	.	1A
=210	=210	=210	=210
0GG	[0d	0g	1B
.	.	.	1G
=211	=211	=211	=211
0D	0d]	[0f	2r
.	.	.	2.f/
.	.	.	4g/
.	.	.	[2a/
=212	=212	=212	=212
0F	0c	0f_	4a/]
.	.	.	4b\
.	.	.	2.cc\
.	.	.	4b\
.	.	.	4a/
.	.	.	4g/
=213	=213	=213	=213
[0D	[0d	0f_	2b\
.	.	.	1a
.	.	.	2dd\
=214	=214	=214	=214
0D]	0d]	0f]	2a/
.	.	.	2.dd\
.	.	.	4cc\
.	.	.	2b\
=215	=215	=215	=215
1r	[0c	0r	2a/
.	.	.	2g/
1F	.	.	2r
.	.	.	[2cc\
=216	=216	=216	=216
2E\	0c_	2r	4cc\]
.	.	.	4b\
2.A\	.	2.c\	4a/
.	.	.	4g/
.	.	.	4f/
4G\	.	4B\	4e/
[2F\	.	4A/	[2a/
.	.	4G/	.
=217	=217	=217	=217
2F\]	0c]	2F/	2a/]
2E\	.	2G/	1g
1F	.	1A	.
.	.	.	2f/
=218	=218	=218	=218
0C	0r	1G	1g
.	.	2r	2g/
.	.	[2g\	[2e/
=219	=219	=219	=219
2r	0r	4g\]	4e/]
.	.	4f\	4f/
2.c\	.	4e\	2g/
.	.	4d\	.
.	.	4e\	2c/
4B\	.	4d\	.
4A\	.	[2a\	[2cc\
4G\	.	.	.
=220	=220	=220	=220
2F\	1r	2a\]	2cc\]
2G\	.	1g	2b\
1A	1c	.	2cc\
.	.	2f#i\	2a/
=221	=221	=221	=221
0G	[0d	0g	0b
=222	=222	=222	=222
1D	0d]	1f	1a
[1G	.	2g\	1b
.	.	4f\	.
.	.	4e\	.
=223	=223	=223	=223
1G]	1.d	2d\	2r
.	.	2e\	2b\
2D\	.	2f\	2a/
[2G\	2d\	2g\	[2b\
=224	=224	=224	=224
2G\]	1c	2e\	2b\]
2F\	.	2f\	1a
1G	1B	[1d	.
.	.	.	2g/
=225	=225	=225	=225
0D	1A	1d]	0a
.	2r	1d	.
.	[2d\	.	.
=226	=226	=226	=226
0GG	4d\]	2.B-i\	2r
.	4c\	.	.
.	4B-i\	.	2.dd\
.	4A/	4c\	.
.	2B-i\	1d	.
.	.	.	4cc\
.	2G/	.	4b-i\
.	.	.	4a/
=227	=227	=227	=227
0r	1.d	1G	2b-i\
.	.	.	4a/
.	.	.	4g/
.	.	1r	2f/
.	4c\	.	2b-i\
.	4B-i\	.	.
=228	=228	=228	=228
0r	4c\	0r	2a/
.	4B-i\	.	.
.	4A/	.	1g
.	4G/	.	.
.	1A	.	.
.	.	.	2f#i/
=229	=229	=229	=229
2r	0G	1r	[0g
2.G\	.	.	.
.	.	2r	.
4F\	.	.	.
4E\	.	[2g\	.
4D\	.	.	.
=230	=230	=230	=230
2E\	0r	4g\]	0g]
.	.	4f\	.
2C/	.	4e\	.
.	.	4d\	.
[1G	.	2e\	.
.	.	4d\	.
.	.	4c\	.
=231	=231	=231	=231
2G\]	0r	2B\	0r
4F\	.	2e\	.
4E\	.	.	.
4F\	.	2d\	.
4E\	.	.	.
4D\	.	[2c\	.
4C/	.	.	.
=232	=232	=232	=232
1D	0r	2c\]	0r
.	.	2B\	.
1C	.	2c\	.
.	.	[2g\	.
=233	=233	=233	=233
0C	0r	4g\]	2r
.	.	4f\	.
.	.	4e\	2.g/
.	.	4d\	.
.	.	2e\	.
.	.	.	4f/
.	.	2c\	4e/
.	.	.	4d/
=234	=234	=234	=234
0r	0r	1.g	2e/
.	.	.	4d/
.	.	.	4c/
.	.	.	2B/
.	.	4f\	2e/
.	.	4e\	.
=235	=235	=235	=235
0r	0r	4f\	2d/
.	.	4e\	.
.	.	4d\	1c
.	.	4c\	.
.	.	1d	.
.	.	.	2B/
=236	=236	=236	=236
0r	0r	1c	1c
.	.	1r	1r
=237	=237	=237	=237
[0C	[0c	[0e	[0cc
=238	=238	=238	=238
1C]	1c]	1e]	1cc]
1FF	1A	1f	1cc
=239	=239	=239	=239
0FF	[0A	0f	0cc
=240	=240	=240	=240
1r	0A_	1r	1r
1F	.	1f	1cc
=241	=241	=241	=241
2F\	0A_	2f\	1cc
2F\	.	2f\	.
2F\	.	2f\	1cc
2F\	.	2f\	.
=242	=242	=242	=242
1C	0A]	1e	1cc
1F	.	1f	1cc
=243	=243	=243	=243
1G	0r	1d	0b
1G	.	1d	.
=244	=244	=244	=244
0C	0r	0c	0cc
=245	=245	=245	=245
0r	1r	1c	1a
.	1c	2c\	1a
.	.	2c\	.
=246	=246	=246	=246
1r	1c	2c\	0g
.	.	2c\	.
1C	1c	[1G	.
=247	=247	=247	=247
2C/	1c	1G]	1.g
2C/	.	.	.
2C/	1c	1G	.
2C/	.	.	2a/
=248	=248	=248	=248
0GG	0B	0d	2b\
.	.	.	2cc\
.	.	.	1dd
=249	=249	=249	=249
0C	0c	0e	1g
.	.	.	2g/
.	.	.	[2a/
=250	=250	=250	=250
1D	1A	[0dl	4a/]
.	.	.	4g/
.	.	.	4f#i/
.	.	.	4e/
1D	1A	.	1f#i
=251	=251	=251	=251
0GGl	0Gl	0d]	0gl
!!LO:LB:i:g=z
=252||	=252||	=252||	=252||
*>F	*>F	*>F	*>F
*clefF4	*clefGv2	*clefGv2	*clefG2
*k[]	*k[]	*k[]	*k[]
*M3/1	*M3/1	*M3/1	*M3/1
*met(3)	*met(3)	*met(3)	*met(3)
!!section: Sicut erat in principio
!!!OMD: Sicut erat in principio
1.GG	[0.G	1.d	0g
2AA/	.	2c\	.
2BB/	.	1d	1g
2GG/	.	.	.
=253	=253	=253	=253
0C	0.G]	0e	1.g
.	.	.	2a/
1BB	.	1d	2b\
.	.	.	2g/
=254	=254	=254	=254
1.AA	[0.A	1.c	0cc
2BB/	.	2d\	.
2C/	.	2e\	[1a
2AA/	.	2c\	.
=255	=255	=255	=255
0D	0.A]	0f	1a]
.	.	.	1.dd
1D	.	[1d	.
.	.	.	2cc\
=256	=256	=256	=256
0GG	1.G	1d]	2b\
.	.	.	2a/
.	.	0e	1.g
.	2A/	.	.
1GG	2B\	.	.
.	2G/	.	2f/
=257	=257	=257	=257
[0.FF	0c	0f	[0.a
.	1c	1f	.
=258	=258	=258	=258
1FF]	0A	1.c	1a]
0FF	.	.	0cc
.	.	2B\	.
.	1A	1A	.
=259	=259	=259	=259
0GG	1.d	1.G	0b
.	2c\	2A/	.
1GG	2B\	2B\	[1g
.	2A/	2c\	.
=260	=260	=260	=260
1.G	1.G	0d	2g/]
.	.	.	2a/
.	.	.	1b
2F\	2A/	.	.
2E\	1B	[1e	1g
2D\	.	.	.
=261	=261	=261	=261
0C	0c	1e]	1a
.	.	1e	1.cc
1AA	[1c	1c	.
.	.	.	2b\
=262	=262	=262	=262
1FF	1c]	0f	0a
0C	0c	.	.
.	.	1e	1g
=263	=263	=263	=263
1FF	0.c	1f	1a
1C	.	1e	1g
1FF	.	1f	1a
=264	=264	=264	=264
0C	0.r	1e	1g
.	.	1c	1e
1BB	.	1d	1f
=265	=265	=265	=265
0.C	[0.c	1.c	1.e
.	.	4B\	2f/
.	.	4A/	.
.	.	1G	1g
=266	=266	=266	=266
0.r	0.c]	1F	1a
.	.	1E	1g
.	.	1F	1a
=267	=267	=267	=267
0.r	[0.B	1.G	1.d
.	.	4F/	2e/
.	.	4E/	.
.	.	1D	1f
=268	=268	=268	=268
0.r	0.B]	1E	1g
.	.	1D	1f
.	.	1E	1g
=269	=269	=269	=269
1.C	[0.c	1.E	0c
2D\	.	2F/	.
1E	.	1G	1r
=270	=270	=270	=270
1F	0.c]	1A	0.r
1E	.	1G	.
1F	.	1A	.
=271	=271	=271	=271
1.D	[0.d	1.F	0.r
2E\	.	2G/	.
1F	.	1A	.
=272	=272	=272	=272
1G	0.d]	1B-i	0.r
1F	.	1A	.
1G	.	1B-i	.
=273	=273	=273	=273
1.C	[0.c	0G	1.e
2D\	.	.	2f/
1E	.	1r	1g
=274	=274	=274	=274
1.F	0.c]	0.r	1.a
2E\	.	.	2g/
2D\	.	.	2f/
2C/	.	.	2e/
=275	=275	=275	=275
[0.BB-	[0.d	0F	0f
.	.	1B-	[1f
=276	=276	=276	=276
1BB-]	0.d]	1F	1f]
0BB-	.	0f	0b-
=277	=277	=277	=277
1.F	0.c	[0.f	1.a
2E\	.	.	2b\
2D\	.	.	1cc
2C/	.	.	.
=278	=278	=278	=278
1BB-i	0.r	0.f]	1dd
1F	.	.	1cc
1BB-i	.	.	1dd
=279	=279	=279	=279
2C/	0.r	[0.e	1.g
2D\	.	.	.
2E\	.	.	.
2F\	.	.	2a/
1G	.	.	1b
=280	=280	=280	=280
1C	0.r	0.e]	1cc
1G	.	.	1b
1C	.	.	1cc
=281	=281	=281	=281
[0.D	1.F	[0.f	0a
.	2G/	.	.
.	1A	.	1r
=282	=282	=282	=282
1D]	1B-i	0.f]	0.r
0D	1A	.	.
.	1B-i	.	.
=283	=283	=283	=283
[0.E	1.G	[0.g	0.r
.	2A/	.	.
.	1B	.	.
=284	=284	=284	=284
1E]	1c	0.g]	0.r
0E	1B	.	.
.	1c	.	.
=285	=285	=285	=285
0D	1.F	0f	0a
.	2G/	.	.
1D	2A/	1f	[1a
.	2B\	.	.
=286	=286	=286	=286
1C	1c	1e	1a]
0BBn	0d	0g	0b
=287	=287	=287	=287
1AA	0c	1e	1.cc
0FF	.	1.f	.
.	.	.	2b\
.	1c	.	2a/
.	.	2e\	2g/
=288	=288	=288	=288
1GG	1B	2d\	0g
.	.	2c\	.
0D	0A	0d	.
.	.	.	1f#i
=289	=289	=289	=289
0GG	0G	0B	1.g
.	.	.	2e/
1r	1A	1r	1f
=290	=290	=290	=290
0.r	2B\	0.r	1g
.	1G	.	.
.	.	.	2e/
.	1c	.	2c/
.	.	.	1d
.	2B\	.	.
=291	=291	=291	=291
0.r	0c	1.g	1c
.	.	.	1g
.	.	2e\	.
.	1r	1f	1a
=292	=292	=292	=292
0.r	1r	1g	2b\
.	.	.	1g
.	1r	2e\	.
.	.	2c\	1cc
.	1G	1d	.
.	.	.	2b\
=293	=293	=293	=293
1r	1A	0c	0.cc
1r	1.c	.	.
1C	.	1r	.
.	2c\	.	.
=294	=294	=294	=294
1E	0c	0.r	0.r
1.F	.	.	.
.	1r	.	.
2F\	.	.	.
=295	=295	=295	=295
0F	1c	0.r	0.r
.	1c	.	.
1r	1B	.	.
=296	=296	=296	=296
1F	1c	0.r	0.r
1F	1A	.	.
1E	1G	.	.
=297	=297	=297	=297
1F	0.r	1c	1r
1D	.	1d	1r
1C	.	1e	1g
=298	=298	=298	=298
0.r	0.r	1.f	1a
.	.	.	1.cc
.	.	2f\	.
.	.	[1f	.
.	.	.	2cc\
=299	=299	=299	=299
0.r	0.r	1f]	0cc
.	.	1f	.
.	.	1f	1r
=300	=300	=300	=300
0.r	0.r	1e	1cc
.	.	1f	1cc
.	.	1d	1b
=301	=301	=301	=301
0F	0.r	0.c	1cc
.	.	.	0a
1F	.	.	.
=302	=302	=302	=302
1E	1c	0.r	1g
1F	1c	.	1c
1D	1B	.	1d
=303	=303	=303	=303
0C	1c	0.r	0e
.	0A	.	.
1r	.	.	2d/
.	.	.	2c/
=304	=304	=304	=304
1E	0G	0e	0B
2D\	.	.	.
2C/	.	.	.
1BB	1G	1d	1b
=305	=305	=305	=305
0AA	0A	1c	1cc
.	.	0e	1.cc
[1AA	[1c	.	.
.	.	.	2cc\
=306	=306	=306	=306
2AA/]	1c]	0e	0cc
2AA/	.	.	.
0AA	0c	.	.
.	.	1r	1r
=307	=307	=307	=307
1A	0c	1e	1cc
1A	.	1f	1cc
1G	1r	1g	1b
=308	=308	=308	=308
1A	1c	1e	1cc
1F	1c	1f	1.a
1G	1B	1d	.
.	.	.	2g/
=309	=309	=309	=309
1C	1c	1e	0g
0D	0A	0d	.
.	.	.	1f#i
=310	=310	=310	=310
0.GGl	0.Gl	0.dl	0.gl
==	==	==	==
*-	*-	*-	*-
!!!RDF**kern: l=long note in original notation
!!!RDF**kern: i=editorial accidental
!!!RDF**kern: V=start of tuplet marker
!!!RDF**kern: Z=end of tuplet marker
!!!ENC:	Megan K. Eagen 2013/01/24
!!!END:	2013/01/24/
!!!EED:	Jesse Rodin
!!!EEV:	2013/08/05/
!!!ONB:	Translated from MusicXML and edited on 2013/08/05/ by Craig Sapp
!!muse2ps: C^@{COM}^i2I150v85,85,85,150Q1c190
